src/assets/boosts/pepsi-max.svg

<svg height="80" viewBox="0 0 26 80" width="26" xmlns="http://www.w3.org/2000/svg"><g fill="none" fill-rule="evenodd"><path d="m24.328 56.81 1.283-5.134c.258-1.029.389-2.09.389-3.153v-17.336c0-2.259-.592-4.489-1.713-6.45l-4.838-8.466c-.948-1.66-1.449-3.547-1.449-5.458v-2.813c.553 0 1-.448 1-1v-6c0-.552-.447-1-1-1h-10c-.552 0-1 .448-1 1v6c0 .552.448 1 1 1v2.813c0 1.911-.501 3.798-1.449 5.457l-4.838 8.466c-1.121 1.962-1.713 4.192-1.713 6.451v17.336c0 1.063.131 2.124.388 3.153l1.283 5.133c.219.871.329 1.769.329 2.668v1.842c0 1.023-.143 2.04-.423 3.022l-.889 3.111c-.467 1.634-.608 3.318-.42 5.007l.541 4.872c.169 1.522 1.451 2.669 2.981 2.669h2.21c.334 0 .646-.167.832-.445l1.168-1.2021351 1.168 1.2021351c.186.278.498.445.832.445h6c.334 0 .646-.167.832-.445l1.168-1.752 1.168 1.752c.186.278.498.445.832.445h2.21c1.531 0 2.813-1.147 2.981-2.669l.542-4.872c.187-1.689.045-3.374-.421-5.007l-.889-3.112c-.28-.981-.423-1.998-.423-3.021v-1.842c0-.899.11-1.797.328-2.667z" fill="#000" fill-rule="nonzero"/><path d="m24 48v.523c0 .899-.11 1.797-.328 2.667l-1.283 5.134c-.258 1.029-.389 2.09-.389 3.153v1.842c0 1.209.168 2.411.5 3.571l.889 3.111c.396 1.382.515 2.808.356 4.237l-.542 4.872c-.056.508-.483.89-.993.89h-1.675l-1.703-2.555c-.371-.557-1.293-.557-1.664 0l-1.703 2.555h-4.93l-1.703-2.555c-.371-.557-1.293-.557-1.664 0l-1.703 2.555h-1.675c-.51 0-.938-.383-.994-.89l-.541-4.872c-.159-1.429-.039-2.854.356-4.237l.889-3.111c.332-1.161.5-2.363.5-3.572v-1.842c0-1.063-.131-2.124-.388-3.153l-1.283-5.133c-.219-.87-.329-1.768-.329-2.667v-.523zm-8-40v2.813c0 2.259.592 4.489 1.713 6.45l4.838 8.466c.948 1.66 1.449 3.547 1.449 5.458v.813h-22v-.813c0-1.911.501-3.798 1.449-5.458l4.838-8.466c1.121-1.961 1.713-4.191 1.713-6.45v-2.813z" fill="#2b0304" fill-rule="nonzero"/><circle cx="13" cy="40" fill="#fff" r="6"/><path d="m14.5004683 40.9977269c2.374361-.8682726 4.1403498-1.2532926 5.2979664-1.1550601l.0000759.0226531c0 3.2032515-2.5967485 5.8-5.8 5.8-3.2032516 0-5.80000002-2.5967485-5.80000002-5.8l.00222141.1796158c1.77682366 1.5212535 3.87673571 1.8388506 6.29973631.9527912z" fill="#274a97" transform="matrix(.93969262 -.34202014 .34202014 .93969262 -13.775952 7.365702)"/><path d="m14.525202 34.4329913c1.2219588-.0042677 2.2069533.287478 2.9549836.8752372-.1143095 1.1165428-.5522524 2.2107203-1.3272013 3.1342684-2.0590104 2.4538331-5.7173929 2.7739-8.17122594.7148896-.90145476-.7564103-1.51494123-1.7286683-1.82829717-2.7777587 3.97130541-1.2923209 6.76170241-1.9410135 8.37174081-1.9466365z" fill="#db0915" transform="matrix(-.92118541 .38912395 -.38912395 -.92118541 37.284224 67.395754)"/></g></svg>

<?xml version="1.0" encoding="UTF-8"?>
<svg width="26px" height="80px" viewBox="0 0 26 80" version="1.1" xmlns="http://www.w3.org/2000/svg" xmlns:xlink="http://www.w3.org/1999/xlink">
    <!-- Generator: Sketch 59.1 (86144) - https://sketch.com -->
    <title>Pepsi Max</title>
    <desc>Created with Sketch.</desc>
    <g id="Page-1" stroke="none" stroke-width="1" fill="none" fill-rule="evenodd">
        <g id="Pepsi-Max" transform="translate(-37.000000, -10.000000)">
            <g transform="translate(37.000000, 10.000000)">
                <path d="M24.328,56.81 L25.611,51.676 C25.869,50.647 26,49.586 26,48.523 L26,31.187 C26,28.928 25.408,26.698 24.287,24.737 L19.449,16.271 C18.501,14.611 18,12.724 18,10.813 L18,8 C18.553,8 19,7.552 19,7 L19,1 C19,0.448 18.553,0 18,0 L8,0 C7.448,0 7,0.448 7,1 L7,7 C7,7.552 7.448,8 8,8 L8,10.813 C8,12.724 7.499,14.611 6.551,16.27 L1.713,24.736 C0.592,26.698 0,28.928 0,31.187 L0,48.523 C0,49.586 0.131,50.647 0.388,51.676 L1.671,56.809 C1.89,57.68 2,58.578 2,59.477 L2,61.319 C2,62.342 1.857,63.359 1.577,64.341 L0.688,67.452 C0.221,69.086 0.08,70.77 0.268,72.459 L0.809,77.331 C0.978,78.853 2.26,80 3.79,80 L6,80 C6.334,80 6.646,79.833 6.832,79.555 L8,78.3528649 L9.168,79.555 C9.354,79.833 9.666,80 10,80 L16,80 C16.334,80 16.646,79.833 16.832,79.555 L18,77.803 L19.168,79.555 C19.354,79.833 19.666,80 20,80 L22.21,80 C23.741,80 25.023,78.853 25.191,77.331 L25.733,72.459 C25.92,70.77 25.778,69.085 25.312,67.452 L24.423,64.34 C24.143,63.359 24,62.342 24,61.319 L24,59.477 C24,58.578 24.11,57.68 24.328,56.81 Z" id="Bottle" fill="#000000" fill-rule="nonzero"></path>
                <path d="M24,48 L24,48.523 C24,49.422 23.89,50.32 23.672,51.19 L22.389,56.324 C22.131,57.353 22,58.414 22,59.477 L22,61.319 C22,62.528 22.168,63.73 22.5,64.89 L23.389,68.001 C23.785,69.383 23.904,70.809 23.745,72.238 L23.203,77.11 C23.147,77.618 22.72,78 22.21,78 L20.535,78 L18.832,75.445 C18.461,74.888 17.539,74.888 17.168,75.445 L15.465,78 L10.535,78 L8.832,75.445 C8.461,74.888 7.539,74.888 7.168,75.445 L5.465,78 L3.79,78 C3.28,78 2.852,77.617 2.796,77.11 L2.255,72.238 C2.096,70.809 2.216,69.384 2.611,68.001 L3.5,64.89 C3.832,63.729 4,62.527 4,61.318 L4,59.476 C4,58.413 3.869,57.352 3.612,56.323 L2.329,51.19 C2.11,50.32 2,49.422 2,48.523 L2,48 L24,48 Z M16,8 L16,10.813 C16,13.072 16.592,15.302 17.713,17.263 L22.551,25.729 C23.499,27.389 24,29.276 24,31.187 L24,32 L2,32 L2,31.187 C2,29.276 2.501,27.389 3.449,25.729 L8.287,17.263 C9.408,15.302 10,13.072 10,10.813 L10,8 L16,8 Z" id="Liquid" fill="#2B0304" fill-rule="nonzero"></path>
                <circle id="Oval" fill="#FFFFFF" cx="13" cy="40" r="6"></circle>
                <path d="M14.5004683,40.9977269 C16.8748293,40.1294543 18.6408181,39.7444343 19.7984347,39.8426668 L19.7985106,39.8653199 C19.7985106,43.0685714 17.2017621,45.6653199 13.9985106,45.6653199 C10.795259,45.6653199 8.19851058,43.0685714 8.19851058,39.8653199 L8.20073199,40.0449357 C9.97755565,41.5661892 12.0774677,41.8837863 14.5004683,40.9977269 Z" id="Blue" fill="#274A97" transform="translate(13.998511, 42.746505) rotate(-20.000000) translate(-13.998511, -42.746505) "></path>
                <path d="M14.525202,34.4329913 C15.7471608,34.4287236 16.7321553,34.7204693 17.4801856,35.3082285 C17.3658761,36.4247713 16.9279332,37.5189488 16.1529843,38.4424969 C14.0939739,40.89633 10.4355914,41.2163969 7.98175836,39.1573865 C7.0803036,38.4009762 6.46681713,37.4287182 6.15346119,36.3796278 C10.1247666,35.0873069 12.9151636,34.4386143 14.525202,34.4329913 Z" id="Red" fill="#DB0915" transform="translate(11.816820, 37.473719) rotate(157.100000) translate(-11.816820, -37.473719) "></path>
            </g>
        </g>
    </g>
</svg>
